src/assets/img/unsorted/emotes/39.svg

<svg xmlns:xlink="http://www.w3.org/1999/xlink" height="100.8" width="132.65" xmlns="http://www.w3.org/2000/svg"><g transform="translate(77.75 73.55)"><use height="10.6" transform="translate(-11.8 1.75)" width="24.5" xlink:href="#a"/><use height="13" transform="translate(-11.65 -8.25)" width="23.5" xlink:href="#b"/></g><defs><radialGradient cx="0" cy="0" gradientTransform="matrix(.008 0 0 .008 -5.15 -1.75)" gradientUnits="userSpaceOnUse" id="e" r="819.2" spreadMethod="pad"><stop offset=".522"/><stop offset="1" stop-opacity="0"/></radialGradient><radialGradient cx="0" cy="0" gradientTransform="matrix(.008 0 0 .008 5.35 -1.75)" gradientUnits="userSpaceOnUse" id="f" r="819.2" spreadMethod="pad"><stop offset=".522"/><stop offset="1" stop-opacity="0"/></radialGradient><use height="8.4" transform="translate(.6 1.1)" width="23.25" xlink:href="#c" id="a"/><use height="8.4" width="23.25" xlink:href="#d" id="c"/><g id="d"><path d="M2.6 2.45q.2-.65.75-1.45L4-.45l1.65.4q1.25.4 2.5 1.35Q6.9.35 5.65-.05L4-.45 3.35 1q-.55.8-.75 1.45-3.2-.25-6.3.65l-.6.15-.8.2-1.85.25-1.3-1.6-.2-.35L-9.5-.9q1.25-1.15 3.6-1.95 2.75-.9 5.75-.85l2.85.3q3.8.5 6.15 2.25l.3.2-1 2.25-.75.85-.9.95-1-.2-.75-.15-2.15-.3m1.6-5L4-.45 2.1-.7 0-.8l-.15-2.9L0-.8l2.1.1L4-.45l.2-2.1M0 1.65V-.8v2.45m-5.9-4.5q-.05 1.9.4 3.05h-.05l-2.9 1.55L-5.55.2h.05q-.45-1.15-.4-3.05M0-.8l-1.7.05-3.8.95.4.8 1.4 2.1L-5.1 1l-.4-.8 3.8-.95L0-.8" fill="#fff" fill-rule="evenodd" transform="translate(11.6 4.2)"/><path d="m6.5 3.1.9-.95.75-.85 1-2.25Q10.3-.1 10.9.9q.7 1.15-.4 2.05l-2.8.35-1.2-.2m-13.45.6-1.9-.15Q-11.5 3.05-11 1.3q.35-1.25 1.5-2.2l1.05 2.65.2.35 1.3 1.6" fill="#666" fill-rule="evenodd" transform="translate(11.6 4.2)"/><path d="m2.6 2.45 2.15.3.75.15 1 .2 1.2.2 2.8-.35q1.1-.9.4-2.05-.6-1-1.75-1.85l-.3-.2Q6.5-2.9 2.7-3.4l-2.85-.3q-3-.05-5.75.85-2.35.8-3.6 1.95-1.15.95-1.5 2.2-.5 1.75 2.15 2.25l1.9.15 1.85-.25.8-.2.6-.15q3.1-.9 6.3-.65" fill="none" stroke="#333" stroke-linecap="round" stroke-linejoin="round" transform="translate(11.6 4.2)"/><path d="M8.15 1.3Q6.9.35 5.65-.05L4-.45 3.35 1q-.55.8-.75 1.45m3.9.65.9-.95.75-.85 1-2.25M-.15-3.7 0-.8l2.1.1L4-.45l.2-2.1M0-.8v2.45M-9.5-.9l1.05 2.65L-5.55.2h.05q-.45-1.15-.4-3.05m-2.55 4.6.2.35 1.3 1.6m3.25-.6L-5.1 1l-.4-.8 3.8-.95L0-.8" fill="none" stroke="#666" stroke-linecap="round" stroke-linejoin="round" transform="translate(11.6 4.2)"/></g><g id="b" fill-rule="evenodd"><path d="M-5.15-8.25q2.65-.05 4.6 1.9 1.9 1.9 1.9 4.6 0 2.65-1.9 4.6-1.95 1.9-4.6 1.9-2.7 0-4.6-1.9-1.95-1.95-1.9-4.6-.05-2.7 1.9-4.6 1.9-1.95 4.6-1.9m0 3.45q-1.3 0-2.2.9-.9.85-.85 2.15Q-8.25-.5-7.35.4q.9.9 2.2.9Q-3.9 1.3-3 .4q.9-.9.9-2.15 0-1.3-.9-2.15-.9-.9-2.15-.9" fill="url(#e)" transform="translate(11.65 8.25)"/><path d="M-5.15-4.8q1.25 0 2.15.9.9.85.9 2.15Q-2.1-.5-3 .4q-.9.9-2.15.9-1.3 0-2.2-.9-.9-.9-.85-2.15-.05-1.3.85-2.15.9-.9 2.2-.9" fill="#fff" transform="translate(11.65 8.25)"/><path d="M5.35-4.8q-1.3 0-2.2.9-.9.85-.85 2.15Q2.25-.5 3.15.4q.9.9 2.2.9Q6.6 1.3 7.5.4q.9-.9.9-2.15 0-1.3-.9-2.15-.9-.9-2.15-.9m0-3.45Q8-8.3 9.95-6.35q1.9 1.9 1.9 4.6 0 2.65-1.9 4.6-1.95 1.9-4.6 1.9-2.7 0-4.6-1.9Q-1.2.9-1.15-1.75q-.05-2.7 1.9-4.6 1.9-1.95 4.6-1.9" fill="url(#f)" transform="translate(11.65 8.25)"/><path d="M5.35-4.8q1.25 0 2.15.9.9.85.9 2.15Q8.4-.5 7.5.4q-.9.9-2.15.9-1.3 0-2.2-.9-.9-.9-.85-2.15-.05-1.3.85-2.15.9-.9 2.2-.9" fill="#fff" transform="translate(11.65 8.25)"/></g></defs></svg>

<?xml version="1.0" encoding="UTF-8" standalone="no"?>
<svg xmlns:xlink="http://www.w3.org/1999/xlink" height="100.8px" width="132.65px" xmlns="http://www.w3.org/2000/svg">
  <g transform="matrix(1.0, 0.0, 0.0, 1.0, 77.75, 73.55)">
    <use height="10.6" transform="matrix(1.0, 0.0, 0.0, 1.0, -11.8, 1.75)" width="24.5" xlink:href="#sprite0"/>
    <use height="13.0" transform="matrix(1.0, 0.0, 0.0, 1.0, -11.65, -8.25)" width="23.5" xlink:href="#shape1"/>
  </g>
  <defs>
    <g id="sprite0" transform="matrix(1.0, 0.0, 0.0, 1.0, 12.2, 5.3)">
      <use height="8.4" transform="matrix(1.0, 0.0, 0.0, 1.0, -11.6, -4.2)" width="23.25" xlink:href="#sprite1"/>
    </g>
    <g id="sprite1" transform="matrix(1.0, 0.0, 0.0, 1.0, 11.6, 4.2)">
      <use height="8.4" transform="matrix(1.0, 0.0, 0.0, 1.0, -11.6, -4.2)" width="23.25" xlink:href="#shape0"/>
    </g>
    <g id="shape0" transform="matrix(1.0, 0.0, 0.0, 1.0, 11.6, 4.2)">
      <path d="M2.6 2.45 Q2.8 1.8 3.35 1.0 L4.0 -0.45 5.65 -0.05 Q6.9 0.35 8.15 1.3 6.9 0.35 5.65 -0.05 L4.0 -0.45 3.35 1.0 Q2.8 1.8 2.6 2.45 -0.6 2.2 -3.7 3.1 L-4.3 3.25 -5.1 3.45 -6.95 3.7 -8.25 2.1 -8.45 1.75 -9.5 -0.9 Q-8.25 -2.05 -5.9 -2.85 -3.15 -3.75 -0.15 -3.7 L2.7 -3.4 Q6.5 -2.9 8.85 -1.15 L9.15 -0.95 8.15 1.3 7.4 2.15 6.5 3.1 5.5 2.9 4.75 2.75 2.6 2.45 M4.2 -2.55 L4.0 -0.45 2.1 -0.7 0.0 -0.8 -0.15 -3.7 0.0 -0.8 2.1 -0.7 4.0 -0.45 4.2 -2.55 M0.0 1.65 L0.0 0.45 0.0 -0.8 0.0 0.45 0.0 1.65 M-5.9 -2.85 Q-5.95 -0.95 -5.5 0.2 L-5.55 0.2 -8.45 1.75 -5.55 0.2 -5.5 0.2 Q-5.95 -0.95 -5.9 -2.85 M0.0 -0.8 L-1.7 -0.75 -5.5 0.2 -5.1 1.0 -3.7 3.1 -5.1 1.0 -5.5 0.2 -1.7 -0.75 0.0 -0.8" fill="#ffffff" fill-rule="evenodd" stroke="none"/>
      <path d="M6.5 3.1 L7.4 2.15 8.15 1.3 9.15 -0.95 Q10.3 -0.1 10.9 0.9 11.6 2.05 10.5 2.95 L7.7 3.3 6.5 3.1 M-6.95 3.7 L-8.85 3.55 Q-11.5 3.05 -11.0 1.3 -10.65 0.05 -9.5 -0.9 L-8.45 1.75 -8.25 2.1 -6.95 3.7" fill="#666666" fill-rule="evenodd" stroke="none"/>
      <path d="M2.6 2.45 L4.75 2.75 5.5 2.9 6.5 3.1 7.7 3.3 10.5 2.95 Q11.6 2.05 10.9 0.9 10.3 -0.1 9.15 -0.95 L8.85 -1.15 Q6.5 -2.9 2.7 -3.4 L-0.15 -3.7 Q-3.15 -3.75 -5.9 -2.85 -8.25 -2.05 -9.5 -0.9 -10.65 0.05 -11.0 1.3 -11.5 3.05 -8.85 3.55 L-6.95 3.7 -5.1 3.45 -4.3 3.25 -3.7 3.1 Q-0.6 2.2 2.6 2.45" fill="none" stroke="#333333" stroke-linecap="round" stroke-linejoin="round" stroke-width="1.0"/>
      <path d="M8.15 1.3 Q6.9 0.35 5.65 -0.05 L4.0 -0.45 3.35 1.0 Q2.8 1.8 2.6 2.45 M6.5 3.1 L7.4 2.15 8.15 1.3 9.15 -0.95 M-0.15 -3.7 L0.0 -0.8 2.1 -0.7 4.0 -0.45 4.2 -2.55 M0.0 -0.8 L0.0 0.45 0.0 1.65 M-9.5 -0.9 L-8.45 1.75 -5.55 0.2 -5.5 0.2 Q-5.95 -0.95 -5.9 -2.85 M-8.45 1.75 L-8.25 2.1 -6.95 3.7 M-3.7 3.1 L-5.1 1.0 -5.5 0.2 -1.7 -0.75 0.0 -0.8" fill="none" stroke="#666666" stroke-linecap="round" stroke-linejoin="round" stroke-width="1.0"/>
    </g>
    <g id="shape1" transform="matrix(1.0, 0.0, 0.0, 1.0, 11.65, 8.25)">
      <path d="M-5.15 -8.25 Q-2.5 -8.3 -0.55 -6.35 1.35 -4.45 1.35 -1.75 1.35 0.9 -0.55 2.85 -2.5 4.75 -5.15 4.75 -7.85 4.75 -9.75 2.85 -11.7 0.9 -11.65 -1.75 -11.7 -4.45 -9.75 -6.35 -7.85 -8.3 -5.15 -8.25 M-5.15 -4.8 Q-6.45 -4.8 -7.35 -3.9 -8.25 -3.05 -8.2 -1.75 -8.25 -0.5 -7.35 0.4 -6.45 1.3 -5.15 1.3 -3.9 1.3 -3.0 0.4 -2.1 -0.5 -2.1 -1.75 -2.1 -3.05 -3.0 -3.9 -3.9 -4.8 -5.15 -4.8" fill="url(#gradient0)" fill-rule="evenodd" stroke="none"/>
      <path d="M-5.15 -4.8 Q-3.9 -4.8 -3.0 -3.9 -2.1 -3.05 -2.1 -1.75 -2.1 -0.5 -3.0 0.4 -3.9 1.3 -5.15 1.3 -6.45 1.3 -7.35 0.4 -8.25 -0.5 -8.2 -1.75 -8.25 -3.05 -7.35 -3.9 -6.45 -4.8 -5.15 -4.8" fill="#ffffff" fill-rule="evenodd" stroke="none"/>
      <path d="M5.35 -4.8 Q4.05 -4.8 3.15 -3.9 2.25 -3.05 2.3 -1.75 2.25 -0.5 3.15 0.4 4.05 1.3 5.35 1.3 6.6 1.3 7.5 0.4 8.4 -0.5 8.4 -1.75 8.4 -3.05 7.5 -3.9 6.6 -4.8 5.35 -4.8 M5.35 -8.25 Q8.0 -8.3 9.95 -6.35 11.85 -4.45 11.85 -1.75 11.85 0.9 9.95 2.85 8.0 4.75 5.35 4.75 2.65 4.75 0.75 2.85 -1.2 0.9 -1.15 -1.75 -1.2 -4.45 0.75 -6.35 2.65 -8.3 5.35 -8.25" fill="url(#gradient1)" fill-rule="evenodd" stroke="none"/>
      <path d="M5.35 -4.8 Q6.6 -4.8 7.5 -3.9 8.4 -3.05 8.4 -1.75 8.4 -0.5 7.5 0.4 6.6 1.3 5.35 1.3 4.05 1.3 3.15 0.4 2.25 -0.5 2.3 -1.75 2.25 -3.05 3.15 -3.9 4.05 -4.8 5.35 -4.8" fill="#ffffff" fill-rule="evenodd" stroke="none"/>
    </g>
    <radialGradient cx="0" cy="0" gradientTransform="matrix(0.008, 0.0, 0.0, 0.008, -5.15, -1.75)" gradientUnits="userSpaceOnUse" id="gradient0" r="819.2" spreadMethod="pad">
      <stop offset="0.5215686274509804" stop-color="#000000"/>
      <stop offset="1.0" stop-color="#000000" stop-opacity="0.0"/>
    </radialGradient>
    <radialGradient cx="0" cy="0" gradientTransform="matrix(0.008, 0.0, 0.0, 0.008, 5.35, -1.75)" gradientUnits="userSpaceOnUse" id="gradient1" r="819.2" spreadMethod="pad">
      <stop offset="0.5215686274509804" stop-color="#000000"/>
      <stop offset="1.0" stop-color="#000000" stop-opacity="0.0"/>
    </radialGradient>
  </defs>
</svg>
